X: 36074
T: Scatter The Mud
R: jig
M: 6/8
K: Adorian
Bd|eAA BAG|EAA ABd|eAA BAB|dBG GBd|
eAA BAG|EAA AGE|GAB d2e|1 dBA A:|2 dBA A3||
aba g2e|dBG AGE|aba g2e|dBd g3|
aba g2e|dBG AGE|GAB d2e|dBA A3:|

